breeze-extended-yaru/places/96/user-home.svg

<?xml version="1.0" encoding="UTF-8" standalone="no"?>
<!-- Created with Inkscape (http://www.inkscape.org/) -->

<svg
   width="96"
   height="96"
   viewBox="0 0 25.399999 25.400001"
   version="1.1"
   id="svg5"
   inkscape:version="1.1.1 (3bf5ae0d25, 2021-09-20)"
   sodipodi:docname="user-home.svg"
   xmlns:inkscape="http://www.inkscape.org/namespaces/inkscape"
   xmlns:sodipodi="http://sodipodi.sourceforge.net/DTD/sodipodi-0.dtd"
   xmlns:xlink="http://www.w3.org/1999/xlink"
   xmlns="http://www.w3.org/2000/svg"
   xmlns:svg="http://www.w3.org/2000/svg">
  <sodipodi:namedview
     id="namedview7"
     pagecolor="#ffffff"
     bordercolor="#666666"
     borderopacity="1.0"
     inkscape:pageshadow="2"
     inkscape:pageopacity="0.0"
     inkscape:pagecheckerboard="0"
     inkscape:document-units="px"
     showgrid="false"
     units="px"
     height="96px"
     inkscape:zoom="2.8873527"
     inkscape:cx="35.153309"
     inkscape:cy="37.058168"
     inkscape:window-width="1488"
     inkscape:window-height="991"
     inkscape:window-x="26"
     inkscape:window-y="23"
     inkscape:window-maximized="0"
     inkscape:current-layer="svg5" />
  <defs
     id="defs2">
    <linearGradient
       inkscape:collect="always"
       id="linearGradient4652">
      <stop
         style="stop-color:#82705e;stop-opacity:1;"
         offset="0"
         id="stop4648" />
      <stop
         style="stop-color:#a89888;stop-opacity:1"
         offset="1"
         id="stop4650" />
    </linearGradient>
    <linearGradient
       inkscape:collect="always"
       id="linearGradient3734">
      <stop
         style="stop-color:#bda792;stop-opacity:1;"
         offset="0"
         id="stop3730" />
      <stop
         style="stop-color:#c9b8a7;stop-opacity:1"
         offset="1"
         id="stop3732" />
    </linearGradient>
    <linearGradient
       inkscape:collect="always"
       xlink:href="#linearGradient3734"
       id="linearGradient3736"
       x1="15.081244"
       y1="23.283333"
       x2="15.081244"
       y2="5.5562501"
       gradientUnits="userSpaceOnUse" />
    <linearGradient
       inkscape:collect="always"
       xlink:href="#linearGradient4652"
       id="linearGradient4654"
       x1="7.1437502"
       y1="11.509376"
       x2="7.1437502"
       y2="2.1166673"
       gradientUnits="userSpaceOnUse" />
  </defs>
  <path
     id="rect846-3"
     style="fill:url(#linearGradient4654);stroke-width:0.300092;fill-opacity:1"
     d="m 1.3229165,2.1166673 8.9958335,-7e-7 2.381251,3.1749999 11.377083,7e-7 V 18.785418 H 1.3229165 Z"
     sodipodi:nodetypes="ccccccc" />
  <path
     id="rect956"
     style="opacity:0.2;fill:#f9f9f9;stroke-width:0.458269"
     d="m 10.31875,2.1166666 2.381251,3.1749999 11.377083,7e-7 V 5.5562501 H 12.700001 Z"
     sodipodi:nodetypes="cccccc" />
  <path
     id="rect956-3"
     style="opacity:0.2;stroke-width:0.458269"
     d="M 10.054167,8.4666662 12.7,5.5562501 10.31875,8.7312498 H 1.3229166 V 8.4666662 Z"
     sodipodi:nodetypes="cccccc" />
  <path
     id="rect846"
     style="fill:url(#linearGradient3736);stroke-width:0.309472;fill-opacity:1"
     d="M 1.3229166,8.7312498 H 10.31875 L 12.700001,5.5562501 H 24.077084 V 23.283333 H 1.3229166 Z"
     sodipodi:nodetypes="ccccccc" />
  <path
     id="rect956-3-6"
     style="opacity:0.2;fill:#f9f9f9;stroke-width:0.458269"
     d="M 10.31875,8.7312498 12.700001,5.5562501 10.583333,8.9958338 H 1.3229166 v -0.264584 z"
     sodipodi:nodetypes="cccccc" />
  <path
     id="rect956-3-7"
     style="opacity:0.2;stroke-width:0.458269"
     d="m 24.077084,23.018749 v 0.264584 H 1.3229166 v -0.264584 z"
     sodipodi:nodetypes="ccccc" />
  <g
     id="g3889"
     transform="matrix(0.36079522,0,0,0.36079522,-125.69074,-173.08477)"
     fill="#867a6e">
    <path
       id="rect4138"
       transform="matrix(0.7333338,0,0,0.7333338,348.37142,479.73134)"
       d="M 48,41 33,56 v 1 h 3 V 71 H 60 V 57 h 3 V 56 L 57,50 V 44 H 51 Z M 48,42.414062 61.583984,56 H 59 V 70 H 51 V 60 H 45 V 70 H 37 V 56 h -2.583984 z"
       stroke-width="1.36364" />
  </g>
</svg>

<svg id="svg15" version="1.1" viewBox="0 0 96 96" xmlns="http://www.w3.org/2000/svg" xmlns:xlink="http://www.w3.org/1999/xlink">
    <defs id="defs5455">
        <linearGradient id="linearGradient4178" x2="0" y1="541.79797" y2="499.78421" gradientTransform="matrix(1.4999996,0,0,1.4995115,-576.85701,-725.43213)" gradientUnits="userSpaceOnUse">
            <stop id="stop4174-6-7" stop-color="#3daee9" offset="0"/>
            <stop id="stop4176-6-5" stop-color="#6cc1ef" offset="1"/>
        </linearGradient>
    </defs>
    <g id="layer1" transform="translate(-384.57144,-483.798)">
        <path id="rect4180" transform="translate(384.57144,483.798)" d="m6 9-1.17e-5 20.999996h84l1.2e-5 -14.999996h-42l-6-6z" fill="#147eb8" stroke-width="1.5"/>
        <path id="rect4113" transform="translate(384.57144,483.798)" d="M 38.999988,23.999996 33,30 H 5 V 87 H 91 V 24 Z" fill="url(#linearGradient4178)" stroke-width="1.5"/>
        <g fill-opacity=".235294" stroke-width="1.5">
            <path id="path4224-1" d="m389.57143 513.798v1h29l4.99999-6.99983-6.00001 6z" fill="#fff" fill-rule="evenodd"/>
            <path id="path4228-0" d="m390.57143 512.798v1.00017h26.99998l6.00002-6.00017-7 5z" fill-rule="evenodd"/>
            <path id="path4151-2" transform="translate(384.57144,483.798)" d="m4.9999883 85.999996v1l86-0.01628v-0.983722z"/>
            <path id="path4196" transform="translate(384.57144,483.798)" d="M 42,9 46.999988,15.999996 90,16 V 15 H 48 Z" fill="#fff" fill-rule="evenodd"/>
        </g>
        <g id="g3889" transform="matrix(1.3636355,0,0,1.3636355,-90.480199,-170.38068)" fill="#1272a5">
            <path id="rect4138" transform="matrix(.7333338 0 0 .7333338 348.37142 479.73134)" d="m48 41-15 15v1h3v14h24v-14h3v-1l-6-6v-6h-6zm0 1.414062 13.583984 13.585938h-2.583984v14h-8v-10h-6v10h-8v-14h-2.583984z" stroke-width="1.36364"/>
        </g>
    </g>
</svg>
